packages/elvis-assets-icons/icons/svg/src/powerline.svg

<svg width="24" height="24" viewBox="0 0 24 24" fill="none" xmlns="http://www.w3.org/2000/svg">
<path d="M13.76 4.17502H14.945C15.34 4.17502 15.655 3.85502 15.655 3.46502C15.655 3.07502 15.34 2.75002 14.945 2.75002H14.235V2.04002C14.235 1.64502 13.915 1.33002 13.525 1.33002C13.135 1.33002 12.815 1.65002 12.815 2.04002V2.75002H11.39V2.04002C11.39 1.64502 11.07 1.33002 10.68 1.33002C10.29 1.33002 9.97001 1.65002 9.97001 2.04002V2.75002H5.7V2.04002C5.7 1.64502 5.38 1.33002 4.99 1.33002C4.6 1.33002 4.27 1.64502 4.27 2.04002V2.75002H2.85V2.04002C2.85 1.64502 2.53 1.33002 2.14 1.33002C1.75 1.33002 1.425 1.64502 1.425 2.04002V2.75002H0.715005C0.320005 2.75002 0.00500488 3.07002 0.00500488 3.46002C0.00500488 3.85002 0.325005 4.17002 0.715005 4.17002H1.9L7.12 8.08502V21.96C7.12 22.355 7.44 22.67 7.83 22.67C8.22501 22.67 8.54 22.35 8.54 21.96V8.08502L13.76 4.17502ZM11.385 4.17502L7.83 6.84502L4.27 4.17502H11.385Z" fill="black"/>
<path d="M23.285 13.01C23.275 13.015 23.27 13.01 23.26 13.01C18.925 13.01 14.89 11.07 12.18 7.68503C11.935 7.38003 11.485 7.33003 11.18 7.57503C10.875 7.82003 10.825 8.27003 11.07 8.57503C14.05 12.3 18.49 14.435 23.26 14.435C23.66 14.445 24 14.125 24 13.72C23.995 13.325 23.68 13.01 23.285 13.01Z" fill="black"/>
</svg>

<svg width="24" height="24" fill="none" xmlns="http://www.w3.org/2000/svg"><path d="M13.76 4.175h1.185a.71.71 0 00.71-.71.714.714 0 00-.71-.715h-.71v-.71a.71.71 0 10-1.42 0v.71H11.39v-.71a.71.71 0 10-1.42 0v.71H5.7v-.71a.71.71 0 00-.71-.71c-.39 0-.72.315-.72.71v.71H2.85v-.71a.71.71 0 00-.71-.71.714.714 0 00-.715.71v.71h-.71a.71.71 0 100 1.42H1.9l5.22 3.915V21.96a.71.71 0 101.42 0V8.085l5.22-3.91zm-2.375 0L7.83 6.845l-3.56-2.67h7.115z" fill="#000"/><path d="M23.285 13.01c-.01.005-.015 0-.025 0a14.12 14.12 0 01-11.08-5.325.714.714 0 00-1-.11.714.714 0 00-.11 1 15.53 15.53 0 0012.19 5.86c.4.01.74-.31.74-.715a.714.714 0 00-.715-.71z" fill="#000"/></svg>
